Cloud/dashboard/static/tracks/hermanos_rodríguez.svg

<?xml version="1.0" encoding="UTF-8"?>
<!-- Uploaded to: SVG Find, www.svgfind.com, Generator: SVG Find Mixer Tools -->
<svg fill="#000000" width="800px" height="800px" version="1.1" viewBox="144 144 512 512" xmlns="http://www.w3.org/2000/svg">
 <path d="m613.87 412.39-7.0391-34.754c-0.87109-4.2852-4.6758-7.3945-9.0469-7.3945-1.5898 0-3.1719 0.42188-4.5664 1.2188l-10.848 6.2031c-2.1172 1.2031-4.9297 0.5-6.2344-1.5039l-101.18-155.44c-3.2578-5.0117-7.4453-9.2109-12.449-12.488-5.3867-3.5234-12.711-3.3398-17.914 0.44141l-4.3945 3.1992c-0.91797 0.68359-2.0898 1.2188-3.7305-0.054687l-11.984-9.2578c-2.4453-1.8906-5.375-2.8906-8.457-2.8906-4.6914 0-9.0273 2.3398-11.594 6.2617l-144.34 220.38-4.4414-2.9102 30.156-46.059-14.684 7.0273 0.83594 4.8789-23.316 35.613 8.6758 5.6797-56.727 86.613c-30.332 46.305-6.2383 71.934 5.5234 80.801 2.0469 1.543 4.4805 2.3555 7.0352 2.3555 3.9961 0 7.6914-1.9961 9.8906-5.3438l17.676-26.992c2.3867-3.6484 3.207-8.1758 2.25-12.43l-1.3359-5.9297 29.961 14.676c7.3516 3.5977 16.703 1.0195 21.172-5.8047l65.141-99.453c4.6992-7.1758 11.84-12.379 20.109-14.652l20.402-5.6172c0.57422-0.15625 1.168-0.26953 1.7695-0.33203l12.574-1.2773c7.1055-0.72266 13.523-4.8164 17.184-10.953l14.227-23.887c5.0625-8.5117 14.648-13.535 24.637-12.785l3.4258 0.26172c10.879 0.83594 21.562-2.6875 29.773-9.7031l4.9102-4.1914c3.2266-2.7578 8.1914-3.0781 11.754-0.74609l76.34 50c5.1758 3.3945 12.48 2.1875 16.344-2.543 2.3359-2.8438 3.25-6.5703 2.5117-10.219zm-10.34 3.8125c-0.70703 0.87109-1.9336 1.1562-2.9609 0.48438l-76.34-50.004c-7.2266-4.7305-17.312-4.0898-23.875 1.5156l-4.9102 4.1914c-6.1836 5.2812-14.246 7.9062-22.43 7.3086l-3.4258-0.26172c-13.871-1.0781-27.102 5.9219-34.109 17.699l-14.227 23.887c-2.0234 3.3945-5.5742 5.6641-9.5117 6.0625l-12.57 1.2773c-1.1602 0.11719-2.3203 0.33203-3.4414 0.64453l-20.398 5.6133c-10.645 2.9297-19.84 9.6289-25.895 18.871l-65.137 99.453c-1.7344 2.6562-5.3633 3.6719-8.2461 2.2617l-32.574-15.957c-3.6094-1.7656-8.1797-0.71875-10.672 2.4023-1.6602 2.0703-2.2734 4.7539-1.6875 7.3555l1.9727 8.7656c0.35938 1.5898 0.050781 3.2891-0.84375 4.6562l-17.672 26.984c-0.50781 0.77344-1.6172 1.0078-2.3633 0.45703-11.785-8.8867-27.871-29.43-3.1445-67.172l203.84-311.22c0.6875-1.0547 1.8555-1.6797 3.1172-1.6797 0.57812 0 1.4375 0.13672 2.2695 0.77734l11.984 9.2539c4.5273 3.5039 11.246 3.6016 15.883 0.22656l4.3945-3.1992c1.8594-1.3555 4.4844-1.4219 6.4062-0.16016 3.8203 2.5039 7.0195 5.7109 9.5117 9.5391l101.18 155.44c2.7383 4.2109 7.375 6.7227 12.402 6.7227 2.5664 0 5.1016-0.67578 7.3359-1.9531l9.7383-5.7031 6.8125 33.648c0.14453 0.69922 0 1.3047-0.41406 1.8125z"/>
</svg>

<?xml version="1.0" encoding="utf-8"?>
<svg fill="#000000" width="800px" height="800px" version="1.1" viewBox="144 144 512 512" xmlns="http://www.w3.org/2000/svg">
  <path d="M 613.87 412.39 L 606.831 377.636 C 605.96 373.351 602.155 370.242 597.784 370.242 C 596.194 370.242 594.612 370.663 593.218 371.46 L 582.37 377.663 C 580.252 378.867 577.44 378.163 576.135 376.16 L 474.955 220.72 C 471.697 215.708 467.51 211.509 462.506 208.232 C 457.12 204.708 449.795 204.892 444.592 208.673 L 440.198 211.872 C 439.28 212.556 438.108 213.091 436.467 211.817 L 424.483 202.56 C 422.038 200.669 419.108 199.669 416.026 199.669 C 411.335 199.669 406.999 202.009 404.432 205.931 L 200.592 517.153 C 170.26 563.458 194.353 589.087 206.115 597.954 C 208.162 599.497 210.595 600.31 213.15 600.31 C 217.146 600.31 220.842 598.314 223.041 594.966 L 240.717 567.974 C 243.103 564.326 243.924 559.798 242.967 555.544 L 241.631 549.615 L 271.592 564.291 C 278.943 567.888 288.295 565.31 292.764 558.486 L 357.905 459.033 C 362.604 451.857 369.745 446.654 378.014 444.381 L 398.416 438.764 C 398.99 438.607 399.584 438.494 400.185 438.432 L 412.759 437.154 C 419.865 436.432 426.282 432.338 429.943 426.201 L 444.17 402.314 C 449.233 393.803 458.818 388.779 468.807 389.529 L 472.233 389.791 C 483.112 390.627 493.795 387.104 502.006 380.088 L 506.916 375.897 C 510.143 373.139 515.108 372.818 518.67 375.15 L 595.01 425.15 C 600.186 428.545 607.49 427.338 611.354 422.607 C 613.69 419.764 614.604 416.037 613.866 412.388 L 613.87 412.39 Z M 603.53 416.203 C 602.823 417.074 601.596 417.359 600.569 416.687 L 524.229 366.683 C 517.003 361.952 506.917 362.593 500.354 368.198 L 495.444 372.39 C 489.26 377.671 481.198 380.296 473.014 379.698 L 469.588 379.437 C 455.717 378.359 442.486 385.359 435.479 397.136 L 421.252 421.023 C 419.229 424.417 415.678 426.687 411.74 427.085 L 399.17 428.363 C 398.01 428.48 396.85 428.695 395.729 429.007 L 375.331 434.62 C 364.686 437.55 355.491 444.249 349.436 453.491 L 284.299 552.944 C 282.565 555.601 278.936 556.616 276.053 555.206 L 243.479 539.249 C 239.87 537.484 235.299 538.53 232.807 541.651 C 231.147 543.722 230.534 546.405 231.119 549.007 L 233.092 557.773 C 233.452 559.362 233.143 561.062 232.248 562.429 L 214.576 589.413 C 214.069 590.186 212.959 590.421 212.213 589.87 C 200.428 580.983 184.342 560.44 209.069 522.698 L 412.909 211.478 C 413.596 210.423 414.764 209.798 416.026 209.798 C 416.604 209.798 417.463 209.935 418.295 210.576 L 430.279 219.829 C 434.807 223.333 441.525 223.431 446.162 220.056 L 450.557 216.857 C 452.416 215.501 455.041 215.435 456.963 216.697 C 460.783 219.201 463.982 222.408 466.475 226.236 L 567.655 381.676 C 570.393 385.887 575.03 388.398 580.057 388.398 C 582.623 388.398 585.158 387.723 587.393 386.445 L 597.131 380.742 L 603.943 414.39 C 604.088 415.089 603.943 415.695 603.529 416.203 L 603.53 416.203 Z"/>
</svg>
